neru-light-classic/22x22/actions/system-lock-screen-symbolic.svg

<?xml version="1.0" encoding="UTF-8" standalone="no"?>
<svg
   xmlns:dc="http://purl.org/dc/elements/1.1/"
   xmlns:cc="http://creativecommons.org/ns#"
   xmlns:rdf="http://www.w3.org/1999/02/22-rdf-syntax-ns#"
   xmlns:svg="http://www.w3.org/2000/svg"
   xmlns="http://www.w3.org/2000/svg"
   xmlns:sodipodi="http://sodipodi.sourceforge.net/DTD/sodipodi-0.dtd"
   xmlns:inkscape="http://www.inkscape.org/namespaces/inkscape"
   width="22"
   height="22"
   version="1.1"
   id="svg4"
   sodipodi:docname="system-lock-screen-symbolic.svg"
   inkscape:version="0.92.1 r">
  <metadata
     id="metadata10">
    <rdf:RDF>
      <cc:Work
         rdf:about="">
        <dc:format>image/svg+xml</dc:format>
        <dc:type
           rdf:resource="http://purl.org/dc/dcmitype/StillImage" />
        <dc:title></dc:title>
      </cc:Work>
    </rdf:RDF>
  </metadata>
  <defs
     id="defs8" />
  <sodipodi:namedview
     pagecolor="#ffffff"
     bordercolor="#666666"
     borderopacity="1"
     objecttolerance="10"
     gridtolerance="10"
     guidetolerance="10"
     inkscape:pageopacity="0"
     inkscape:pageshadow="2"
     inkscape:window-width="1680"
     inkscape:window-height="964"
     id="namedview6"
     showgrid="false"
     inkscape:zoom="17.20867"
     inkscape:cx="8.3676677"
     inkscape:cy="-0.98152321"
     inkscape:window-x="0"
     inkscape:window-y="0"
     inkscape:window-maximized="1"
     inkscape:current-layer="svg4" />
  <path
     style="fill:#1e333d;fill-opacity:1;stroke-width:1.16666663"
     d="m 11,2.8333334 c -2.5853333,0 -4.6666667,2.0813332 -4.6666667,4.6666665 V 9.8333337 H 5.1666667 C 4.5203333,9.8333337 4,10.353667 4,11 v 7 c 0,0.646334 0.5203333,1.166667 1.1666667,1.166667 H 16.833333 C 17.479667,19.166667 18,18.646334 18,18 V 11 C 18,10.353667 17.479667,9.8333337 16.833333,9.8333337 H 15.666667 V 7.4999999 C 15.666667,4.9146666 13.585333,2.8333334 11,2.8333334 Z m 0,2.3333332 c 1.292667,0 2.333333,1.0406667 2.333333,2.3333333 V 9.8333337 H 8.6666667 V 7.4999999 C 8.6666667,6.2073333 9.7073333,5.1666666 11,5.1666666 Z"
     id="path2"
     inkscape:connector-curvature="0" />
</svg>

<svg xmlns="http://www.w3.org/2000/svg" width="22" height="22"><path d="M11 2.833A4.656 4.656 0 0 0 6.333 7.5v2.333H5.167C4.52 9.833 4 10.353 4 11v7c0 .646.52 1.167 1.167 1.167h11.666c.647 0 1.167-.52 1.167-1.167v-7c0-.646-.52-1.167-1.167-1.167h-1.166V7.5A4.656 4.656 0 0 0 11 2.833zm0 2.334A2.328 2.328 0 0 1 13.333 7.5v2.333H8.667V7.5A2.328 2.328 0 0 1 11 5.167z" fill="#1e333d"/></svg>
